!!!OTL: In natali domini
**kern
*staff1
=--
*clefC1
*k[b-]
*M3/1
0g
1f
=-
0g
1b-
=-
0a
1g
=-
0.a
=-
0b-
1b-
=-
0a
1b-
=-
0g
1f
=-
0.g
!!linebreak:original
=-
0a
1b-
=-
0cc
1a
=-
1b-
0g
=-
0.f
=-
0cc
1dd
=-
0cc
1dd
=-
0cc
1b-
=-
0.cc
=-
!!linebreak:original
0g
1g
=-
0b-
1a
=-
0g
1f
=-
0.g
=-
0a
1b-
=-
0cc
1a
=-
1b-
0g
=-
0.f
=-
0b-
1b-
=-
0a
1b-
=-
0g
1f
=-
0.g
=-=
*-
!!title: @{OTL}, @{GTL}, ed. @{ENC}
!!!pag:
!!!GTL: Hymnbook C
!!!EFL: 
!!!YEM: Creative Commons CC/BY/NC/SA 4.0
!!!ENC: Marcin Konik
!!!END: 2015-0m-dd
!!!EED: Marcin Konik
!!!EEV: 
!!!ONB: Encoded in vim by Marcin Konik
!!!CharacterEncoding: utf-8
!!!RDF**kern: l=long note in original notation
!!!RDF**kern: i=editorial accidental
!!muse2ps: z14jc180F
!!!COM: Anonim
!!!CDT: [?]
!!!TXO: Polish
!!!ODT: 
!!!GTL: Hymnbook C
!!!ARL: Opactwo św. Wojciecha, Staniątki 
!!!voices:	1
